T: Flowers Of Edinburgh, The
M: 4/4
L: 1/8
K: Gmaj
D3 E G3 A | BGdG B2 AG | F3 E D>EFG | AFdF E3 F | D3 E G3 A | B>AGd e2 e/f/g | cBAG A2 GA | B2 A>G G2 :|g>fga g/a/b ag | f>efg f/g/a gf | edef gfed | B2 e>f e2 g2 | B2 AG d2 cB | edef g>abB | cBAG A2 GA | B2 A>G G2 :|D3 E G3 A | BGBd B2 AG | F3 E DEFG | AFdF E2 FE |DEFD G3 A | (3BAG (3Bcd e3 g | dBAG E2 GA | B2 GA G2 ||gfg>a f/a/b ag | fef>g f/g/a gf | edef gfed | B2 e2 e3 g/4f/4e/ |dBAG d2 cB | edef g3 g/4a/4b/ | cBAG E2 GA | B2 G2 G2 |]D3 E G3 A | BGdG B2AG | F3 E DEFG | AFdF E3 F | D3 E G3 A | B2 d2 e2 (3efg | B2 AG A2 GA | B2 G2 G2 :|gfga (3gab ag | fefg (3fga gf | edef gfed | B2 e2 e2 (3efg | B2 AG d2 Bd | edef (3gab ag | B2 AG A2 GA | B2 G2 G2 :|
